X: 27032
T: Miss Grace Speirs Of Elderslie
R: reel
M: 4/4
K: Aminor
|:A2 GA EAcA|BdcA GBGE|A2 GA EAcA|GBEd cA A2|
A2 EA EAcA|BdcA GBGE|A2 GA EAcA|GBEd cA A2||
|:eAcA EAcA|cAEA FAcA|eAcA EAcA|GEBG A4|
eAcA EAcA|cAEA FAcA|cAeA fAeA|GBEd cA A2:|

